; generated by PrusaSlicer 2.3.3+win64 on 2022-04-01 at 09:59:33 UTC

; 

; external perimeters extrusion width = 0.45mm
; perimeters extrusion width = 0.45mm
; infill extrusion width = 0.45mm
; solid infill extrusion width = 0.45mm
; top infill extrusion width = 0.40mm
; support material extrusion width = 0.35mm
; first layer extrusion width = 0.42mm

M73 P0 R163
M73 Q0 S169
M201 X1000 Y1000 Z200 E5000 ; sets maximum accelerations, mm/sec^2
M203 X200 Y200 Z12 E120 ; sets maximum feedrates, mm/sec
M204 P1250 R1250 T1250 ; sets acceleration (P, T) and retract acceleration (R), mm/sec^2
M205 X8.00 Y8.00 Z0.40 E4.50 ; sets the jerk limits, mm/sec
M205 S0 T0 ; sets the minimum extruding and travel feed rate, mm/sec
M107
;TYPE:Custom
M862.3 P "MK3" ; printer model check
M862.1 P0.4 ; nozzle diameter check
M115 U3.10.0 ; tell printer latest fw version
G90 ; use absolute coordinates
M83 ; extruder relative mode
M104 S215 ; set extruder temp
M140 S60 ; set bed temp
M190 S60 ; wait for bed temp
M109 S215 ; wait for extruder temp
G28 W ; home all without mesh bed level
G80 ; mesh bed leveling
G1 Y-3.0 F1000.0 ; go outside print area
G92 E0.0
G1 X60.0 E9.0 F1000.0 ; intro line
G1 X100.0 E12.5 F1000.0 ; intro line
G92 E0.0
M221 S95

; Don't change E values below. Excessive value can damage the printer.

M907 E538 ; set extruder motor current
G21 ; set units to millimeters
G90 ; use absolute coordinates
M83 ; use relative distances for extrusion
M900 K0.05 ; Filament gcode LA 1.5
M900 K30 ; Filament gcode LA 1.0
;LAYER_CHANGE
;Z:0.2
;HEIGHT:0.2
;BEFORE_LAYER_CHANGE
G92 E0.0
;0.2


G1 E-0.80000 F2100.000
G1 Z0.400 F10800.000
;AFTER_LAYER_CHANGE
;0.2
G1 X23.387 Y53.254
G1 Z0.200
G1 E0.80000 F2100.000
M204 S1000
;TYPE:Skirt
;WIDTH:0.42
G1 F1200.000
G1 X23.917 Y52.884 E0.02024
G1 X24.440 Y52.690 E0.01752
G1 X24.995 Y52.623 E0.01752
G1 X225.004 Y52.623 E6.27113
G1 X225.906 Y52.802 E0.02884
G1 X226.675 Y53.313 E0.02896
G1 X227.190 Y54.076 E0.02884
G1 X227.377 Y54.976 E0.02884
G1 X227.377 Y155.030 E3.13714
G1 X227.282 Y155.665 E0.02012
G1 X227.021 Y156.251 E0.02012
G1 X226.613 Y156.746 E0.02012
G1 X226.083 Y157.116 E0.02024
G1 X225.560 Y157.310 E0.01752
G1 X225.005 Y157.377 E0.01752
G1 X24.989 Y157.377 E6.27137
G1 X24.349 Y157.286 E0.02024
G1 X23.755 Y157.025 E0.02036
G1 X23.254 Y156.613 E0.02036
G1 X22.884 Y156.083 E0.02024
G1 X22.690 Y155.560 E0.01752
G1 X22.623 Y155.005 E0.01752
G1 X22.623 Y54.977 E3.13630
G1 X22.716 Y54.342 E0.02012
G1 X22.977 Y53.752 E0.02024
G1 X23.349 Y53.300 E0.01836
; printing object Deksel Bo.stl id:0 copy 0
;WIPE_START
G1 F8640.000
G1 X23.917 Y52.884 E-0.16244
G1 X24.440 Y52.690 E-0.12899
G1 X24.995 Y52.623 E-0.12899
G1 X26.466 Y52.623 E-0.33958
;WIPE_END
G1 E-0.04000 F2100.000
G1 Z0.600 F10800.000
G1 X25.787 Y55.787
G1 Z0.200
G1 E0.80000 F2100.000
;TYPE:Perimeter
G1 F1200.000
G1 X224.213 Y55.787 E6.22150
M73 P0 R162
G1 X224.213 Y154.213 E3.08607
G1 X25.787 Y154.213 E6.22150
M73 Q0 S168
G1 X25.787 Y55.847 E3.08419
G1 X25.410 Y55.410 F10800.000
;TYPE:External perimeter
G1 F1200.000
G1 X224.590 Y55.410 E6.24515
G1 X224.590 Y154.590 E3.10972
G1 X25.410 Y154.590 E6.24515
G1 X25.410 Y55.470 E3.10784
G1 X25.805 Y55.471 F10800.000
;WIPE_START
G1 F8640.000
G1 X28.701 Y55.469 E-0.76000
;WIPE_END
M73 P1 R162
G1 E-0.04000 F2100.000
G1 Z0.600 F10800.000
G1 X224.100 Y56.664
G1 Z0.200
G1 E0.80000 F2100.000
;TYPE:Solid infill
;WIDTH:0.420648
G1 F1200.000
G1 X223.506 Y56.070 E0.02638
G1 X222.972 Y56.070 E0.01678
G1 X223.930 Y57.028 E0.04257
G1 X223.930 Y57.563 E0.01678
G1 X222.437 Y56.070 E0.06630
G1 X221.903 Y56.070 E0.01678
G1 X223.930 Y58.097 E0.09003
G1 X223.930 Y58.631 E0.01678
G1 X221.369 Y56.070 E0.11376
G1 X220.835 Y56.070 E0.01678
G1 X223.930 Y59.165 E0.13748
G1 X223.930 Y59.699 E0.01678
G1 X220.301 Y56.070 E0.16121
G1 X219.767 Y56.070 E0.01678
M73 Q1 S168
G1 X223.930 Y60.233 E0.18494
G1 X223.930 Y60.768 E0.01678
G1 X219.232 Y56.070 E0.20867
G1 X218.698 Y56.070 E0.01678
G1 X223.930 Y61.302 E0.23239
G1 X223.930 Y61.836 E0.01678
G1 X218.164 Y56.070 E0.25612
G1 X217.630 Y56.070 E0.01678
G1 X223.930 Y62.370 E0.27985
G1 X223.930 Y62.904 E0.01678
G1 X217.096 Y56.070 E0.30358
G1 X216.561 Y56.070 E0.01678
G1 X223.930 Y63.439 E0.32730
G1 X223.930 Y63.973 E0.01678
G1 X216.027 Y56.070 E0.35103
G1 X215.493 Y56.070 E0.01678
G1 X223.930 Y64.507 E0.37476
G1 X223.930 Y65.041 E0.01678
G1 X214.959 Y56.070 E0.39849
M73 P1 R161
G1 X214.425 Y56.070 E0.01678
G1 X223.930 Y65.575 E0.42221
G1 X223.930 Y66.110 E0.01678
G1 X213.890 Y56.070 E0.44594
G1 X213.356 Y56.070 E0.01678
G1 X223.930 Y66.644 E0.46967
G1 X223.930 Y67.178 E0.01678
G1 X212.822 Y56.070 E0.49340
G1 X212.288 Y56.070 E0.01678
G1 X223.930 Y67.712 E0.51712
G1 X223.930 Y68.246 E0.01678
G1 X211.754 Y56.070 E0.54085
G1 X211.220 Y56.070 E0.01678
G1 X223.930 Y68.780 E0.56458
G1 X223.930 Y69.315 E0.01678
G1 X210.685 Y56.070 E0.58831
G1 X210.151 Y56.070 E0.01678
G1 X223.930 Y69.849 E0.61203
G1 X223.930 Y70.383 E0.01678
G1 X209.617 Y56.070 E0.63576
G1 X209.083 Y56.070 E0.01678
G1 X223.930 Y70.917 E0.65949
G1 X223.930 Y71.451 E0.01678
G1 X208.549 Y56.070 E0.68322
G1 X208.014 Y56.070 E0.01678
G1 X223.930 Y71.986 E0.70694
M73 Q1 S167
G1 X223.930 Y72.520 E0.01678
G1 X207.480 Y56.070 E0.73067
G1 X206.946 Y56.070 E0.01678
G1 X223.930 Y73.054 E0.75440
G1 X223.930 Y73.588 E0.01678
G1 X206.412 Y56.070 E0.77813
G1 X205.878 Y56.070 E0.01678
G1 X223.930 Y74.122 E0.80185
G1 X223.930 Y74.657 E0.01678
G1 X205.343 Y56.070 E0.82558
G1 X204.809 Y56.070 E0.01678
G1 X223.930 Y75.191 E0.84931
G1 X223.930 Y75.725 E0.01678
G1 X204.275 Y56.070 E0.87304
G1 X203.741 Y56.070 E0.01678
G1 X223.930 Y76.259 E0.89676
G1 X223.930 Y76.793 E0.01678
G1 X203.207 Y56.070 E0.92049
G1 X202.673 Y56.070 E0.01678
G1 X223.930 Y77.327 E0.94422
G1 X223.930 Y77.862 E0.01678
G1 X202.138 Y56.070 E0.96795
G1 X201.604 Y56.070 E0.01678
G1 X223.930 Y78.396 E0.99167
G1 X223.930 Y78.930 E0.01678
G1 X201.070 Y56.070 E1.01540
G1 X200.536 Y56.070 E0.01678
G1 X223.930 Y79.464 E1.03913
G1 X223.930 Y79.998 E0.01678
G1 X200.002 Y56.070 E1.06286
G1 X199.467 Y56.070 E0.01678
G1 X223.930 Y80.533 E1.08658
G1 X223.930 Y81.067 E0.01678
G1 X198.933 Y56.070 E1.11031
G1 X198.399 Y56.070 E0.01678
G1 X223.930 Y81.601 E1.13404
G1 X223.930 Y82.135 E0.01678
G1 X197.865 Y56.070 E1.15777
G1 X197.331 Y56.070 E0.01678
G1 X223.930 Y82.669 E1.18149
G1 X223.930 Y83.204 E0.01678
G1 X196.796 Y56.070 E1.20522
G1 X196.262 Y56.070 E0.01678
G1 X223.930 Y83.738 E1.22895
G1 X223.930 Y84.272 E0.01678
G1 X195.728 Y56.070 E1.25268
G1 X195.194 Y56.070 E0.01678
G1 X223.930 Y84.806 E1.27640
G1 X223.930 Y85.340 E0.01678
G1 X194.660 Y56.070 E1.30013
G1 X194.126 Y56.070 E0.01678
G1 X223.930 Y85.874 E1.32386
G1 X223.930 Y86.409 E0.01678
G1 X193.591 Y56.070 E1.34759
G1 X193.057 Y56.070 E0.01678
G1 X223.930 Y86.943 E1.37131
M73 P1 R160
G1 X223.930 Y87.477 E0.01678
G1 X192.523 Y56.070 E1.39504
G1 X191.989 Y56.070 E0.01678
G1 X223.930 Y88.011 E1.41877
G1 X223.930 Y88.545 E0.01678
G1 X191.455 Y56.070 E1.44250
G1 X190.920 Y56.070 E0.01678
G1 X223.930 Y89.080 E1.46622
G1 X223.930 Y89.614 E0.01678
G1 X190.386 Y56.070 E1.48995
G1 X189.852 Y56.070 E0.01678
G1 X223.930 Y90.148 E1.51368
M73 Q1 S166
G1 X223.930 Y90.682 E0.01678
G1 X189.318 Y56.070 E1.53741
G1 X188.784 Y56.070 E0.01678
G1 X223.930 Y91.216 E1.56113
G1 X223.930 Y91.751 E0.01678
G1 X188.249 Y56.070 E1.58486
G1 X187.715 Y56.070 E0.01678
G1 X223.930 Y92.285 E1.60859
G1 X223.930 Y92.819 E0.01678
G1 X187.181 Y56.070 E1.63232
G1 X186.647 Y56.070 E0.01678
G1 X223.930 Y93.353 E1.65604
G1 X223.930 Y93.887 E0.01678
G1 X186.113 Y56.070 E1.67977
M73 P2 R160
G1 X185.578 Y56.070 E0.01678
G1 X223.930 Y94.422 E1.70350
G1 X223.930 Y94.956 E0.01678
G1 X185.044 Y56.070 E1.72723
M73 Q2 S166
G1 X184.510 Y56.070 E0.01678
G1 X223.930 Y95.490 E1.75095
G1 X223.930 Y96.024 E0.01678
G1 X183.976 Y56.070 E1.77468
G1 X183.442 Y56.070 E0.01678
G1 X223.930 Y96.558 E1.79841
G1 X223.930 Y97.092 E0.01678
G1 X182.908 Y56.070 E1.82214
G1 X182.373 Y56.070 E0.01678
G1 X223.930 Y97.627 E1.84586
G1 X223.930 Y98.161 E0.01678
G1 X181.839 Y56.070 E1.86959
G1 X181.305 Y56.070 E0.01678
G1 X223.930 Y98.695 E1.89332
G1 X223.930 Y99.229 E0.01678
G1 X180.771 Y56.070 E1.91705
M73 P2 R159
G1 X180.237 Y56.070 E0.01678
G1 X223.930 Y99.763 E1.94077
G1 X223.930 Y100.298 E0.01678
G1 X179.702 Y56.070 E1.96450
G1 X179.168 Y56.070 E0.01678
G1 X223.930 Y100.832 E1.98823
G1 X223.930 Y101.366 E0.01678
G1 X178.634 Y56.070 E2.01196
M73 Q2 S165
G1 X178.100 Y56.070 E0.01678
G1 X223.930 Y101.900 E2.03568
G1 X223.930 Y102.434 E0.01678
G1 X177.566 Y56.070 E2.05941
G1 X177.031 Y56.070 E0.01678
G1 X223.930 Y102.969 E2.08314
G1 X223.930 Y103.503 E0.01678
G1 X176.497 Y56.070 E2.10687
G1 X175.963 Y56.070 E0.01678
G1 X223.930 Y104.037 E2.13059
G1 X223.930 Y104.571 E0.01678
G1 X175.429 Y56.070 E2.15432
G1 X174.895 Y56.070 E0.01678
G1 X223.930 Y105.105 E2.17805
G1 X223.930 Y105.639 E0.01678
G1 X174.361 Y56.070 E2.20178
G1 X173.826 Y56.070 E0.01678
G1 X223.930 Y106.174 E2.22550
G1 X223.930 Y106.708 E0.01678
G1 X173.292 Y56.070 E2.24923
G1 X172.758 Y56.070 E0.01678
G1 X223.930 Y107.242 E2.27296
G1 X223.930 Y107.776 E0.01678
G1 X172.224 Y56.070 E2.29669
G1 X171.690 Y56.070 E0.01678
G1 X223.930 Y108.310 E2.32042
M73 P2 R158
G1 X223.930 Y108.845 E0.01678
G1 X171.155 Y56.070 E2.34414
G1 X170.621 Y56.070 E0.01678
G1 X223.930 Y109.379 E2.36787
G1 X223.930 Y109.913 E0.01678
G1 X170.087 Y56.070 E2.39160
M73 P3 R158
G1 X169.553 Y56.070 E0.01678
G1 X223.930 Y110.447 E2.41533
M73 Q2 S164
G1 X223.930 Y110.981 E0.01678
G1 X169.019 Y56.070 E2.43905
M73 Q3 S164
G1 X168.484 Y56.070 E0.01678
G1 X223.930 Y111.516 E2.46278
G1 X223.930 Y112.050 E0.01678
G1 X167.950 Y56.070 E2.48651
G1 X167.416 Y56.070 E0.01678
G1 X223.930 Y112.584 E2.51024
G1 X223.930 Y113.118 E0.01678
G1 X166.882 Y56.070 E2.53396
G1 X166.348 Y56.070 E0.01678
G1 X223.930 Y113.652 E2.55769
G1 X223.930 Y114.186 E0.01678
G1 X165.814 Y56.070 E2.58142
G1 X165.279 Y56.070 E0.01678
G1 X223.930 Y114.721 E2.60515
G1 X223.930 Y115.255 E0.01678
G1 X164.745 Y56.070 E2.62887
G1 X164.211 Y56.070 E0.01678
G1 X223.930 Y115.789 E2.65260
G1 X223.930 Y116.323 E0.01678
G1 X163.677 Y56.070 E2.67633
M73 P3 R157
G1 X163.143 Y56.070 E0.01678
G1 X223.930 Y116.857 E2.70006
G1 X223.930 Y117.392 E0.01678
G1 X162.608 Y56.070 E2.72378
G1 X162.074 Y56.070 E0.01678
G1 X223.930 Y117.926 E2.74751
M73 Q3 S163
G1 X223.930 Y118.460 E0.01678
G1 X161.540 Y56.070 E2.77124
G1 X161.006 Y56.070 E0.01678
G1 X223.930 Y118.994 E2.79497
G1 X223.930 Y119.528 E0.01678
G1 X160.472 Y56.070 E2.81869
G1 X159.937 Y56.070 E0.01678
G1 X223.930 Y120.063 E2.84242
G1 X223.930 Y120.597 E0.01678
G1 X159.403 Y56.070 E2.86615
G1 X158.869 Y56.070 E0.01678
G1 X223.930 Y121.131 E2.88988
G1 X223.930 Y121.665 E0.01678
G1 X158.335 Y56.070 E2.91360
G1 X157.801 Y56.070 E0.01678
G1 X223.930 Y122.199 E2.93733
M73 P4 R157
G1 X223.930 Y122.733 E0.01678
G1 X157.267 Y56.070 E2.96106
G1 X156.732 Y56.070 E0.01678
G1 X223.930 Y123.268 E2.98479
M73 P4 R156
G1 X223.930 Y123.802 E0.01678
G1 X156.198 Y56.070 E3.00851
M73 Q4 S163
G1 X155.664 Y56.070 E0.01678
G1 X223.930 Y124.336 E3.03224
G1 X223.930 Y124.870 E0.01678
G1 X155.130 Y56.070 E3.05597
M73 Q4 S162
G1 X154.596 Y56.070 E0.01678
G1 X223.930 Y125.404 E3.07970
G1 X223.930 Y125.939 E0.01678
G1 X154.061 Y56.070 E3.10342
G1 X153.527 Y56.070 E0.01678
G1 X223.930 Y126.473 E3.12715
G1 X223.930 Y127.007 E0.01678
G1 X152.993 Y56.070 E3.15088
G1 X152.459 Y56.070 E0.01678
G1 X223.930 Y127.541 E3.17461
G1 X223.930 Y128.075 E0.01678
G1 X151.925 Y56.070 E3.19833
G1 X151.390 Y56.070 E0.01678
G1 X223.930 Y128.610 E3.22206
G1 X223.930 Y129.144 E0.01678
G1 X150.856 Y56.070 E3.24579
G1 X150.322 Y56.070 E0.01678
G1 X223.930 Y129.678 E3.26952
M73 P4 R155
G1 X223.930 Y130.212 E0.01678
G1 X149.788 Y56.070 E3.29324
G1 X149.254 Y56.070 E0.01678
G1 X223.930 Y130.746 E3.31697
G1 X223.930 Y131.280 E0.01678
G1 X148.720 Y56.070 E3.34070
M73 Q4 S161
G1 X148.185 Y56.070 E0.01678
G1 X223.930 Y131.815 E3.36443
G1 X223.930 Y132.349 E0.01678
G1 X147.651 Y56.070 E3.38815
M73 P5 R155
G1 X147.117 Y56.070 E0.01678
G1 X223.930 Y132.883 E3.41188
G1 X223.930 Y133.417 E0.01678
G1 X146.583 Y56.070 E3.43561
G1 X146.049 Y56.070 E0.01678
G1 X223.930 Y133.951 E3.45934
M73 Q5 S161
G1 X223.930 Y134.486 E0.01678
G1 X145.514 Y56.070 E3.48306
G1 X144.980 Y56.070 E0.01678
G1 X223.930 Y135.020 E3.50679
G1 X223.930 Y135.554 E0.01678
G1 X144.446 Y56.070 E3.53052
M73 P5 R154
G1 X143.912 Y56.070 E0.01678
G1 X223.930 Y136.088 E3.55425
G1 X223.930 Y136.622 E0.01678
G1 X143.378 Y56.070 E3.57797
G1 X142.843 Y56.070 E0.01678
G1 X223.930 Y137.157 E3.60170
M73 Q5 S160
G1 X223.930 Y137.691 E0.01678
G1 X142.309 Y56.070 E3.62543
G1 X141.775 Y56.070 E0.01678
G1 X223.930 Y138.225 E3.64916
G1 X223.930 Y138.759 E0.01678
G1 X141.241 Y56.070 E3.67288
G1 X140.707 Y56.070 E0.01678
G1 X223.930 Y139.293 E3.69661
G1 X223.930 Y139.827 E0.01678
G1 X140.173 Y56.070 E3.72034
G1 X139.638 Y56.070 E0.01678
G1 X223.930 Y140.362 E3.74407
G1 X223.930 Y140.896 E0.01678
G1 X139.104 Y56.070 E3.76779
G1 X138.570 Y56.070 E0.01678
G1 X223.930 Y141.430 E3.79152
M73 P6 R153
G1 X223.930 Y141.964 E0.01678
G1 X138.036 Y56.070 E3.81525
G1 X137.502 Y56.070 E0.01678
G1 X223.930 Y142.498 E3.83898
M73 Q5 S159
G1 X223.930 Y143.033 E0.01678
G1 X136.967 Y56.070 E3.86270
M73 Q6 S159
G1 X136.433 Y56.070 E0.01678
G1 X223.930 Y143.567 E3.88643
G1 X223.930 Y144.101 E0.01678
G1 X135.899 Y56.070 E3.91016
G1 X135.365 Y56.070 E0.01678
G1 X223.930 Y144.635 E3.93389
G1 X223.930 Y145.169 E0.01678
G1 X134.831 Y56.070 E3.95761
G1 X134.296 Y56.070 E0.01678
G1 X223.930 Y145.704 E3.98134
G1 X223.930 Y146.238 E0.01678
G1 X133.762 Y56.070 E4.00507
M73 P6 R152
G1 X133.228 Y56.070 E0.01678
G1 X223.930 Y146.772 E4.02880
G1 X223.930 Y147.306 E0.01678
G1 X132.694 Y56.070 E4.05252
M73 Q6 S158
G1 X132.160 Y56.070 E0.01678
G1 X223.930 Y147.840 E4.07625
G1 X223.930 Y148.374 E0.01678
G1 X131.625 Y56.070 E4.09998
G1 X131.091 Y56.070 E0.01678
G1 X223.930 Y148.909 E4.12371
G1 X223.930 Y149.443 E0.01678
G1 X130.557 Y56.070 E4.14743
M73 P7 R152
G1 X130.023 Y56.070 E0.01678
G1 X223.930 Y149.977 E4.17116
G1 X223.930 Y150.511 E0.01678
G1 X129.489 Y56.070 E4.19489
G1 X128.955 Y56.070 E0.01678
G1 X223.930 Y151.045 E4.21862
M73 P7 R151
G1 X223.930 Y151.580 E0.01678
G1 X128.420 Y56.070 E4.24234
M73 Q7 S158
G1 X127.886 Y56.070 E0.01678
G1 X223.930 Y152.114 E4.26607
M73 Q7 S157
G1 X223.930 Y152.648 E0.01678
G1 X127.352 Y56.070 E4.28980
G1 X126.818 Y56.070 E0.01678
G1 X223.930 Y153.182 E4.31353
G1 X223.930 Y153.716 E0.01678
G1 X126.284 Y56.070 E4.33725
G1 X125.749 Y56.070 E0.01678
G1 X223.610 Y153.930 E4.34675
G1 X223.075 Y153.930 E0.01678
G1 X125.215 Y56.070 E4.34675
G1 X124.681 Y56.070 E0.01678
G1 X222.541 Y153.930 E4.34675
G1 X222.007 Y153.930 E0.01678
G1 X124.147 Y56.070 E4.34675
M73 P7 R150
G1 X123.613 Y56.070 E0.01678
G1 X221.473 Y153.930 E4.34675
G1 X220.939 Y153.930 E0.01678
G1 X123.078 Y56.070 E4.34675
M73 Q7 S156
G1 X122.544 Y56.070 E0.01678
G1 X220.405 Y153.930 E4.34675
M73 P8 R150
G1 X219.870 Y153.930 E0.01678
G1 X122.010 Y56.070 E4.34675
G1 X121.476 Y56.070 E0.01678
G1 X219.336 Y153.930 E4.34675
G1 X218.802 Y153.930 E0.01678
G1 X120.942 Y56.070 E4.34675
G1 X120.408 Y56.070 E0.01678
G1 X218.268 Y153.930 E4.34675
M73 Q8 S156
G1 X217.734 Y153.930 E0.01678
G1 X119.873 Y56.070 E4.34675
G1 X119.339 Y56.070 E0.01678
G1 X217.199 Y153.930 E4.34675
M73 P8 R149
G1 X216.665 Y153.930 E0.01678
G1 X118.805 Y56.070 E4.34675
M73 Q8 S155
G1 X118.271 Y56.070 E0.01678
G1 X216.131 Y153.930 E4.34675
G1 X215.597 Y153.930 E0.01678
G1 X117.737 Y56.070 E4.34675
G1 X117.202 Y56.070 E0.01678
G1 X215.063 Y153.930 E4.34675
G1 X214.528 Y153.930 E0.01678
G1 X116.668 Y56.070 E4.34675
G1 X116.134 Y56.070 E0.01678
G1 X213.994 Y153.930 E4.34675
G1 X213.460 Y153.930 E0.01678
G1 X115.600 Y56.070 E4.34675
G1 X115.066 Y56.070 E0.01678
G1 X212.926 Y153.930 E4.34675
M73 P9 R148
G1 X212.392 Y153.930 E0.01678
G1 X114.531 Y56.070 E4.34675
G1 X113.997 Y56.070 E0.01678
G1 X211.858 Y153.930 E4.34675
M73 Q8 S154
G1 X211.323 Y153.930 E0.01678
