; generated by PrusaSlicer 2.3.3+win64 on 2022-04-01 at 09:59:58 UTC

; 

; external perimeters extrusion width = 0.45mm
; perimeters extrusion width = 0.45mm
; infill extrusion width = 0.45mm
; solid infill extrusion width = 0.45mm
; top infill extrusion width = 0.40mm
; first layer extrusion width = 0.42mm

M73 P0 R3
M73 Q0 S3
M201 X1000 Y1000 Z200 E5000 ; sets maximum accelerations, mm/sec^2
M203 X200 Y200 Z12 E120 ; sets maximum feedrates, mm/sec
M204 P1250 R1250 T1250 ; sets acceleration (P, T) and retract acceleration (R), mm/sec^2
M205 X8.00 Y8.00 Z0.40 E4.50 ; sets the jerk limits, mm/sec
M205 S0 T0 ; sets the minimum extruding and travel feed rate, mm/sec
M107
;TYPE:Custom
M862.3 P "MK3" ; printer model check
M862.1 P0.4 ; nozzle diameter check
M115 U3.10.0 ; tell printer latest fw version
G90 ; use absolute coordinates
M83 ; extruder relative mode
M104 S215 ; set extruder temp
M140 S60 ; set bed temp
M190 S60 ; wait for bed temp
M109 S215 ; wait for extruder temp
G28 W ; home all without mesh bed level
G80 ; mesh bed leveling
G1 Y-3.0 F1000.0 ; go outside print area
G92 E0.0
G1 X60.0 E9.0 F1000.0 ; intro line
M73 P1 R3
M73 Q1 S3
G1 X100.0 E12.5 F1000.0 ; intro line
G92 E0.0
M221 S95

; Don't change E values below. Excessive value can damage the printer.

M907 E538 ; set extruder motor current
G21 ; set units to millimeters
G90 ; use absolute coordinates
M83 ; use relative distances for extrusion
M900 K0.05 ; Filament gcode LA 1.5
M900 K30 ; Filament gcode LA 1.0
;LAYER_CHANGE
;Z:0.2
;HEIGHT:0.2
;BEFORE_LAYER_CHANGE
G92 E0.0
;0.2


M73 P3 R3
M73 Q3 S3
G1 E-0.80000 F2100.000
G1 Z0.400 F10800.000
;AFTER_LAYER_CHANGE
;0.2
G1 X107.032 Y97.421
G1 Z0.200
G1 E0.80000 F2100.000
M204 S1000
;TYPE:Skirt
;WIDTH:0.42
G1 F1200.000
G1 X107.987 Y97.246 E0.03044
G1 X142.004 Y97.246 E1.06658
M73 P4 R3
M73 Q4 S3
G1 X143.017 Y97.440 E0.03233
G1 X143.887 Y97.994 E0.03233
G1 X144.493 Y98.828 E0.03233
G1 X144.749 Y99.827 E0.03233
G1 X144.728 Y110.380 E0.33088
G1 X144.530 Y111.089 E0.02307
G1 X144.151 Y111.720 E0.02307
G1 X143.616 Y112.230 E0.02320
G1 X142.968 Y112.579 E0.02307
G1 X142.013 Y112.754 E0.03044
G1 X107.881 Y112.752 E1.07018
M73 P5 R3
M73 Q5 S3
G1 X107.095 Y112.601 E0.02511
G1 X106.381 Y112.228 E0.02523
G1 X105.809 Y111.669 E0.02511
G1 X105.421 Y110.968 E0.02511
G1 X105.246 Y110.038 E0.02968
G1 X105.265 Y99.673 E0.32498
M73 P6 R3
M73 Q6 S3
G1 X105.456 Y98.945 E0.02358
G1 X105.833 Y98.300 E0.02345
G1 X106.371 Y97.779 E0.02345
G1 X106.980 Y97.450 E0.02170
G1 X107.156 Y97.782 F10800.000
G1 F1200.000
G1 X107.991 Y97.623 E0.02665
G1 X142.004 Y97.623 E1.06644
M73 Q7 S3
G1 X142.881 Y97.792 E0.02802
G1 X143.634 Y98.274 E0.02802
M73 P7 R3
G1 X144.156 Y98.999 E0.02802
G1 X144.373 Y99.869 E0.02813
G1 X144.359 Y110.296 E0.32693
G1 X144.190 Y110.923 E0.02036
G1 X143.859 Y111.482 E0.02036
G1 X143.388 Y111.929 E0.02036
G1 X142.815 Y112.233 E0.02036
G1 X142.009 Y112.377 E0.02567
G1 X107.909 Y112.375 E1.06918
M73 P8 R3
M73 Q8 S3
G1 X107.219 Y112.245 E0.02201
G1 X106.600 Y111.921 E0.02190
G1 X106.100 Y111.428 E0.02201
G1 X105.767 Y110.815 E0.02190
G1 X105.623 Y110.028 E0.02508
G1 X105.637 Y99.742 E0.32252
G1 X105.798 Y99.105 E0.02060
G1 X106.129 Y98.533 E0.02071
G1 X106.602 Y98.077 E0.02060
G1 X107.103 Y97.810 E0.01780
; printing object Plaat_Bo.stl id:0 copy 0
;WIPE_START
G1 F8640.000
G1 X107.991 Y97.623 E-0.20953
G1 X110.375 Y97.623 E-0.55047
;WIPE_END
G1 E-0.04000 F2100.000
G1 Z0.600 F10800.000
G1 X108.787 Y100.787
G1 Z0.200
G1 E0.80000 F2100.000
;TYPE:Perimeter
G1 F1200.000
G1 X141.213 Y100.787 E1.01669
M73 P9 R3
M73 Q9 S3
G1 X141.213 Y109.213 E0.26419
G1 X108.787 Y109.213 E1.01669
M73 P10 R3
M73 Q10 S3
G1 X108.787 Y100.847 E0.26231
G1 X108.410 Y100.410 F10800.000
;TYPE:External perimeter
M73 Q11 S3
G1 F1200.000
G1 X141.590 Y100.410 E1.04034
M73 P11 R3
G1 X141.590 Y109.590 E0.28783
M73 Q12 S3
G1 X108.410 Y109.590 E1.04034
M73 P12 R3
G1 X108.410 Y100.470 E0.28595
M73 Q13 S3
G1 X108.808 Y100.446 F10800.000
;WIPE_START
G1 F8640.000
G1 X111.701 Y100.464 E-0.76000
;WIPE_END
M73 P13 R3
G1 E-0.04000 F2100.000
G1 Z0.600 F10800.000
G1 X140.328 Y100.900
G1 Z0.200
G1 E0.80000 F2100.000
;TYPE:Solid infill
;WIDTH:0.424518
G1 F1200.000
G1 X140.930 Y101.502 E0.02702
G1 X140.930 Y102.042 E0.01712
G1 X139.958 Y101.070 E0.04362
G1 X139.418 Y101.070 E0.01712
G1 X140.930 Y102.582 E0.06784
G1 X140.930 Y103.121 E0.01712
G1 X138.879 Y101.070 E0.09206
G1 X138.339 Y101.070 E0.01712
G1 X140.930 Y103.661 E0.11627
G1 X140.930 Y104.201 E0.01712
G1 X137.799 Y101.070 E0.14049
G1 X137.260 Y101.070 E0.01712
G1 X140.930 Y104.740 E0.16470
M73 Q14 S3
G1 X140.930 Y105.280 E0.01712
G1 X136.720 Y101.070 E0.18892
M73 P14 R3
G1 X136.180 Y101.070 E0.01712
G1 X140.930 Y105.820 E0.21314
G1 X140.930 Y106.359 E0.01712
G1 X135.641 Y101.070 E0.23735
G1 X135.101 Y101.070 E0.01712
G1 X140.930 Y106.899 E0.26157
G1 X140.930 Y107.439 E0.01712
G1 X134.561 Y101.070 E0.28579
M73 Q15 S3
G1 X134.022 Y101.070 E0.01712
G1 X140.930 Y107.978 E0.31000
M73 P15 R3
G1 X140.930 Y108.518 E0.01712
G1 X133.482 Y101.070 E0.33422
G1 X132.942 Y101.070 E0.01712
G1 X140.803 Y108.930 E0.35271
G1 X140.263 Y108.930 E0.01712
G1 X132.403 Y101.070 E0.35271
M73 P16 R3
M73 Q16 S3
G1 X131.863 Y101.070 E0.01712
G1 X139.723 Y108.930 E0.35271
G1 X139.184 Y108.930 E0.01712
G1 X131.323 Y101.070 E0.35271
G1 X130.784 Y101.070 E0.01712
G1 X138.644 Y108.930 E0.35271
M73 Q17 S3
G1 X138.104 Y108.930 E0.01712
G1 X130.244 Y101.070 E0.35271
M73 P17 R3
G1 X129.704 Y101.070 E0.01712
G1 X137.565 Y108.930 E0.35271
G1 X137.025 Y108.930 E0.01712
G1 X129.165 Y101.070 E0.35271
G1 X128.625 Y101.070 E0.01712
G1 X136.485 Y108.930 E0.35271
M73 P18 R3
M73 Q18 S3
G1 X135.946 Y108.930 E0.01712
G1 X128.085 Y101.070 E0.35271
G1 X127.546 Y101.070 E0.01712
G1 X135.406 Y108.930 E0.35271
G1 X134.866 Y108.930 E0.01712
G1 X127.006 Y101.070 E0.35271
M73 Q19 S3
G1 X126.466 Y101.070 E0.01712
G1 X134.327 Y108.930 E0.35271
M73 P19 R3
G1 X133.787 Y108.930 E0.01712
G1 X125.927 Y101.070 E0.35271
G1 X125.387 Y101.070 E0.01712
G1 X133.247 Y108.930 E0.35271
G1 X132.708 Y108.930 E0.01712
G1 X124.847 Y101.070 E0.35271
M73 P20 R3
M73 Q20 S3
G1 X124.308 Y101.070 E0.01712
G1 X132.168 Y108.930 E0.35271
G1 X131.628 Y108.930 E0.01712
G1 X123.768 Y101.070 E0.35271
G1 X123.228 Y101.070 E0.01712
G1 X131.089 Y108.930 E0.35271
M73 Q21 S3
G1 X130.549 Y108.930 E0.01712
M73 P21 R3
G1 X122.689 Y101.070 E0.35271
G1 X122.149 Y101.070 E0.01712
G1 X130.009 Y108.930 E0.35271
G1 X129.470 Y108.930 E0.01712
G1 X121.609 Y101.070 E0.35271
G1 X121.070 Y101.070 E0.01712
G1 X128.930 Y108.930 E0.35271
M73 P22 R3
M73 Q22 S3
G1 X128.390 Y108.930 E0.01712
G1 X120.530 Y101.070 E0.35271
G1 X119.991 Y101.070 E0.01712
G1 X127.851 Y108.930 E0.35271
G1 X127.311 Y108.930 E0.01712
G1 X119.451 Y101.070 E0.35271
M73 P23 R3
M73 Q23 S3
G1 X118.911 Y101.070 E0.01712
G1 X126.771 Y108.930 E0.35271
G1 X126.232 Y108.930 E0.01712
G1 X118.372 Y101.070 E0.35271
G1 X117.832 Y101.070 E0.01712
G1 X125.692 Y108.930 E0.35271
M73 Q24 S3
G1 X125.152 Y108.930 E0.01712
G1 X117.292 Y101.070 E0.35271
M73 P24 R3
G1 X116.753 Y101.070 E0.01712
G1 X124.613 Y108.930 E0.35271
G1 X124.073 Y108.930 E0.01712
G1 X116.213 Y101.070 E0.35271
G1 X115.673 Y101.070 E0.01712
G1 X123.533 Y108.930 E0.35271
M73 P25 R3
M73 Q25 S3
G1 X122.994 Y108.930 E0.01712
G1 X115.134 Y101.070 E0.35271
G1 X114.594 Y101.070 E0.01712
G1 X122.454 Y108.930 E0.35271
G1 X121.914 Y108.930 E0.01712
G1 X114.054 Y101.070 E0.35271
M73 Q26 S3
G1 X113.515 Y101.070 E0.01712
G1 X121.375 Y108.930 E0.35271
M73 P26 R3
G1 X120.835 Y108.930 E0.01712
G1 X112.975 Y101.070 E0.35271
M73 P26 R2
M73 Q26 S2
G1 X112.435 Y101.070 E0.01712
G1 X120.296 Y108.930 E0.35271
G1 X119.756 Y108.930 E0.01712
G1 X111.896 Y101.070 E0.35271
M73 P27 R2
M73 Q27 S2
G1 X111.356 Y101.070 E0.01712
G1 X119.216 Y108.930 E0.35271
G1 X118.677 Y108.930 E0.01712
G1 X110.816 Y101.070 E0.35271
G1 X110.277 Y101.070 E0.01712
G1 X118.137 Y108.930 E0.35271
M73 Q28 S2
G1 X117.597 Y108.930 E0.01712
M73 P28 R2
G1 X109.737 Y101.070 E0.35271
G1 X109.197 Y101.070 E0.01712
G1 X117.058 Y108.930 E0.35271
G1 X116.518 Y108.930 E0.01712
G1 X109.070 Y101.482 E0.33421
G1 X109.070 Y102.022 E0.01712
G1 X115.978 Y108.930 E0.31000
M73 P29 R2
M73 Q29 S2
G1 X115.439 Y108.930 E0.01712
G1 X109.070 Y102.561 E0.28578
G1 X109.070 Y103.101 E0.01712
G1 X114.899 Y108.930 E0.26157
G1 X114.359 Y108.930 E0.01712
G1 X109.070 Y103.641 E0.23735
G1 X109.070 Y104.180 E0.01712
G1 X113.820 Y108.930 E0.21313
M73 Q30 S2
G1 X113.280 Y108.930 E0.01712
G1 X109.070 Y104.720 E0.18892
M73 P30 R2
G1 X109.070 Y105.260 E0.01712
G1 X112.740 Y108.930 E0.16470
G1 X112.201 Y108.930 E0.01712
G1 X109.070 Y105.799 E0.14048
G1 X109.070 Y106.339 E0.01712
G1 X111.661 Y108.930 E0.11627
G1 X111.121 Y108.930 E0.01712
G1 X109.070 Y106.879 E0.09205
G1 X109.070 Y107.418 E0.01712
G1 X110.582 Y108.930 E0.06784
G1 X110.042 Y108.930 E0.01712
G1 X109.070 Y107.958 E0.04362
G1 X109.070 Y108.498 E0.01712
G1 X109.672 Y109.100 E0.02702
; stop printing object Plaat_Bo.stl id:0 copy 0
M106 S255
;LAYER_CHANGE
;Z:0.4
;HEIGHT:0.2
;BEFORE_LAYER_CHANGE
G92 E0.0
;0.4


;WIPE_START
G1 F8640.000
G1 X109.070 Y108.498 E-0.19661
G1 X109.070 Y107.958 E-0.12461
G1 X110.042 Y108.930 E-0.31743
G1 X110.568 Y108.930 E-0.12135
;WIPE_END
G1 E-0.04000 F2100.000
G1 Z0.600 F10800.000
;AFTER_LAYER_CHANGE
;0.4
G1 X105.421 Y110.968
M73 Q31 S2
G1 Z0.400
G1 E0.80000 F2100.000
;TYPE:Skirt
;WIDTH:0.42
G1 F3000.000
G1 X105.246 Y110.038 E0.02968
M73 P31 R2
G1 X105.265 Y99.673 E0.32498
G1 X105.456 Y98.945 E0.02358
G1 X105.833 Y98.300 E0.02345
G1 X106.371 Y97.779 E0.02345
G1 X107.032 Y97.421 E0.02358
G1 X107.987 Y97.246 E0.03044
G1 X142.004 Y97.246 E1.06658
G1 X143.017 Y97.440 E0.03233
G1 X143.887 Y97.994 E0.03233
G1 X144.493 Y98.828 E0.03233
G1 X144.749 Y99.827 E0.03233
G1 X144.728 Y110.380 E0.33088
G1 X144.530 Y111.089 E0.02307
G1 X144.151 Y111.720 E0.02307
G1 X143.616 Y112.230 E0.02320
G1 X142.968 Y112.579 E0.02307
G1 X142.013 Y112.754 E0.03044
G1 X107.881 Y112.752 E1.07018
M73 P32 R2
M73 Q32 S2
G1 X107.095 Y112.601 E0.02511
G1 X106.381 Y112.228 E0.02523
G1 X105.809 Y111.669 E0.02511
G1 X105.450 Y111.020 E0.02323
G1 X105.781 Y110.841 F10800.000
G1 F3000.000
G1 X105.623 Y110.028 E0.02597
G1 X105.637 Y99.742 E0.32252
G1 X105.798 Y99.105 E0.02060
G1 X106.129 Y98.533 E0.02071
G1 X106.602 Y98.077 E0.02060
G1 X107.185 Y97.767 E0.02071
G1 X107.991 Y97.623 E0.02567
G1 X142.004 Y97.623 E1.06644
G1 X142.881 Y97.792 E0.02802
G1 X143.634 Y98.274 E0.02802
G1 X144.156 Y98.999 E0.02802
G1 X144.373 Y99.869 E0.02813
G1 X144.359 Y110.296 E0.32693
G1 X144.190 Y110.923 E0.02036
G1 X143.859 Y111.482 E0.02036
G1 X143.388 Y111.929 E0.02036
G1 X142.815 Y112.233 E0.02036
G1 X142.009 Y112.377 E0.02567
G1 X107.909 Y112.375 E1.06918
M73 P33 R2
M73 Q33 S2
G1 X107.219 Y112.245 E0.02201
G1 X106.600 Y111.921 E0.02190
G1 X106.100 Y111.428 E0.02201
G1 X105.810 Y110.894 E0.01908
; printing object Plaat_Bo.stl id:0 copy 0
;WIPE_START
G1 F8640.000
G1 X105.623 Y110.028 E-0.20451
G1 X105.626 Y107.622 E-0.55549
;WIPE_END
G1 E-0.04000 F2100.000
G1 Z0.800 F10800.000
G1 X108.632 Y109.368
G1 Z0.400
G1 E0.80000 F2100.000
M204 S800
;TYPE:Perimeter
;WIDTH:0.45
G1 F3600.000
G1 X108.632 Y100.632 E0.29570
G1 X141.368 Y100.632 E1.10807
G1 X141.368 Y109.368 E0.29570
G1 X108.692 Y109.368 E1.10604
M204 S1000
M73 P34 R2
M73 Q34 S2
G1 X108.225 Y109.775 F10800.000
M204 S800
;TYPE:External perimeter
G1 F2100.000
G1 X108.225 Y100.225 E0.32326
G1 X141.775 Y100.225 E1.13563
G1 X141.775 Y109.775 E0.32326
M73 Q35 S2
G1 X108.285 Y109.775 E1.13360
M204 S1000
M73 P35 R2
G1 X108.392 Y109.412 F10800.000
;WIPE_START
G1 F8640.000
G1 X108.264 Y106.484 E-0.76000
;WIPE_END
G1 E-0.04000 F2100.000
G1 Z0.800 F10800.000
G1 X140.419 Y109.246
G1 Z0.400
G1 E0.80000 F2100.000
;TYPE:Solid infill
;WIDTH:0.451892
G1 F6219
G1 X141.063 Y108.602 E0.03096
G1 X141.063 Y108.024 E0.01967
G1 X140.024 Y109.063 E0.04996
G1 X139.445 Y109.063 E0.01967
G1 X141.063 Y107.445 E0.07778
G1 X141.063 Y106.867 E0.01967
M73 Q36 S2
G1 X138.867 Y109.063 E0.10559
G1 X138.289 Y109.063 E0.01967
G1 X141.063 Y106.289 E0.13341
M73 P36 R2
G1 X141.063 Y105.710 E0.01967
G1 X137.710 Y109.063 E0.16122
G1 X137.132 Y109.063 E0.01967
G1 X141.063 Y105.132 E0.18904
G1 X141.063 Y104.553 E0.01967
G1 X136.553 Y109.063 E0.21685
G1 X135.975 Y109.063 E0.01967
G1 X141.063 Y103.975 E0.24467
G1 X141.063 Y103.397 E0.01967
G1 X135.397 Y109.063 E0.27249
G1 X134.818 Y109.063 E0.01967
G1 X141.063 Y102.818 E0.30030
G1 X141.063 Y102.240 E0.01967
G1 X134.240 Y109.063 E0.32812
G1 X133.662 Y109.063 E0.01967
G1 X141.063 Y101.662 E0.35593
G1 X141.063 Y101.083 E0.01967
G1 X133.083 Y109.063 E0.38375
G1 X132.505 Y109.063 E0.01967
G1 X140.630 Y100.937 E0.39076
M73 Q37 S2
G1 X140.052 Y100.937 E0.01967
M73 P37 R2
G1 X131.926 Y109.063 E0.39076
G1 X131.348 Y109.063 E0.01967
G1 X139.473 Y100.937 E0.39076
G1 X138.895 Y100.937 E0.01967
G1 X130.770 Y109.063 E0.39076
G1 X130.191 Y109.063 E0.01967
G1 X138.317 Y100.937 E0.39076
G1 X137.738 Y100.937 E0.01967
G1 X129.613 Y109.063 E0.39076
G1 X129.035 Y109.063 E0.01967
G1 X137.160 Y100.937 E0.39076
G1 X136.581 Y100.937 E0.01967
G1 X128.456 Y109.063 E0.39076
G1 X127.878 Y109.063 E0.01967
G1 X136.003 Y100.937 E0.39076
G1 X135.425 Y100.937 E0.01967
G1 X127.299 Y109.063 E0.39076
M73 P38 R2
M73 Q38 S2
G1 X126.721 Y109.063 E0.01967
G1 X134.846 Y100.937 E0.39076
G1 X134.268 Y100.937 E0.01967
G1 X126.143 Y109.063 E0.39076
G1 X125.564 Y109.063 E0.01967
G1 X133.690 Y100.937 E0.39076
G1 X133.111 Y100.937 E0.01967
G1 X124.986 Y109.063 E0.39076
G1 X124.408 Y109.063 E0.01967
G1 X132.533 Y100.937 E0.39076
G1 X131.954 Y100.937 E0.01967
G1 X123.829 Y109.063 E0.39076
G1 X123.251 Y109.063 E0.01967
G1 X131.376 Y100.937 E0.39076
G1 X130.798 Y100.937 E0.01967
G1 X122.672 Y109.063 E0.39076
G1 X122.094 Y109.063 E0.01967
M73 Q39 S2
G1 X130.219 Y100.937 E0.39076
M73 P39 R2
G1 X129.641 Y100.937 E0.01967
G1 X121.516 Y109.063 E0.39076
G1 X120.937 Y109.063 E0.01967
G1 X129.063 Y100.937 E0.39076
G1 X128.484 Y100.937 E0.01967
G1 X120.359 Y109.063 E0.39076
G1 X119.781 Y109.063 E0.01967
G1 X127.906 Y100.937 E0.39076
G1 X127.327 Y100.937 E0.01967
G1 X119.202 Y109.063 E0.39076
G1 X118.624 Y109.063 E0.01967
G1 X126.749 Y100.937 E0.39076
G1 X126.171 Y100.937 E0.01967
G1 X118.045 Y109.063 E0.39076
G1 X117.467 Y109.063 E0.01967
G1 X125.592 Y100.937 E0.39076
G1 X125.014 Y100.937 E0.01967
M73 Q40 S2
G1 X116.889 Y109.063 E0.39076
M73 P40 R2
G1 X116.310 Y109.063 E0.01967
G1 X124.436 Y100.937 E0.39076
G1 X123.857 Y100.937 E0.01967
G1 X115.732 Y109.063 E0.39076
G1 X115.154 Y109.063 E0.01967
G1 X123.279 Y100.937 E0.39076
G1 X122.700 Y100.937 E0.01967
G1 X114.575 Y109.063 E0.39076
G1 X113.997 Y109.063 E0.01967
G1 X122.122 Y100.937 E0.39076
G1 X121.544 Y100.937 E0.01967
G1 X113.418 Y109.063 E0.39076
G1 X112.840 Y109.063 E0.01967
G1 X120.965 Y100.937 E0.39076
G1 X120.387 Y100.937 E0.01967
G1 X112.262 Y109.063 E0.39076
M73 Q41 S2
G1 X111.683 Y109.063 E0.01967
G1 X119.809 Y100.937 E0.39076
M73 P41 R2
G1 X119.230 Y100.937 E0.01967
G1 X111.105 Y109.063 E0.39076
G1 X110.527 Y109.063 E0.01967
G1 X118.652 Y100.937 E0.39076
G1 X118.073 Y100.937 E0.01967
G1 X109.948 Y109.063 E0.39076
G1 X109.370 Y109.063 E0.01967
G1 X117.495 Y100.937 E0.39076
G1 X116.917 Y100.937 E0.01967
G1 X108.937 Y108.917 E0.38374
G1 X108.937 Y108.338 E0.01967
G1 X116.338 Y100.937 E0.35593
G1 X115.760 Y100.937 E0.01967
G1 X108.937 Y107.760 E0.32811
G1 X108.937 Y107.182 E0.01967
G1 X115.182 Y100.937 E0.30030
G1 X114.603 Y100.937 E0.01967
G1 X108.937 Y106.603 E0.27248
M73 P42 R2
M73 Q42 S2
G1 X108.937 Y106.025 E0.01967
G1 X114.025 Y100.937 E0.24467
G1 X113.446 Y100.937 E0.01967
G1 X108.937 Y105.446 E0.21685
G1 X108.937 Y104.868 E0.01967
G1 X112.868 Y100.937 E0.18904
G1 X112.290 Y100.937 E0.01967
G1 X108.937 Y104.290 E0.16122
G1 X108.937 Y103.711 E0.01967
G1 X111.711 Y100.937 E0.13341
G1 X111.133 Y100.937 E0.01967
G1 X108.937 Y103.133 E0.10559
G1 X108.937 Y102.555 E0.01967
G1 X110.555 Y100.937 E0.07778
G1 X109.976 Y100.937 E0.01967
G1 X108.937 Y101.976 E0.04996
G1 X108.937 Y101.398 E0.01967
